;generated by ffslicer 2.2.2 04/28/23 21:18:50
;machine_type: Creator 3
;right_extruder_material: PLA
;right_extruder_material_density: 1.24
;filament_diameter0: 1.75
;right_extruder_temperature: 200
;layer_height: 0.18
;perimeter_shells: 3
;top_solid_layers: 4
;bottom_solid_layers: 3
;fill_density: 15%
;fill_pattern: hexagon
;base_print_speed: 60
;travel_speed: 200
;platform_temperature: 45
;right_extruder_temperature_raft0: 205
;right_extruder_temperature_reset: 
;left_extruder_temperature_reset: 
;start gcode
M118 X15.74 Y19.45 Z6.65 T0
M140 S45 T0
M104 S205 T0
M104 S0 T1 
M107
G90
G1 Z50.000 F420
M7 T0
M6 T0
M651 S255
;layer_count: 32
M108 T0
;-----------------
G1 X13.09 Y-14.80 F12000
;preExtrude:0.20
G1 Z.200 F420
;structure:pre-extrude
G1 X13.09 Y-14.80 F12000
G1 X13.62 Y-14.00 E.1238 F1200
G1 X15.00 Y-14.00 E.3019
G1 X15.00 Y16.00 E4.1734
G1 X9.36 Y16.00 E4.9012
G1 X9.03 Y16.28 E4.9571
G1 X8.22 Y16.88 E5.0872
G1 X7.37 Y17.43 E5.2178
G1 X6.48 Y17.92 E5.3489
G1 X5.57 Y18.33 E5.4777
G1 X4.63 Y18.69 E5.6076
G1 X3.66 Y18.98 E5.7383
G1 X2.68 Y19.20 E5.8679
G1 X1.68 Y19.35 E5.9984
G1 X.67 Y19.44 E6.1293
G1 X-.34 Y19.45 E6.2596
G1 X-1.34 Y19.39 E6.3889
G1 X-2.34 Y19.26 E6.5190
G1 X-3.33 Y19.06 E6.6494
G1 X-4.30 Y18.79 E6.7793
G1 X-5.26 Y18.46 E6.9103
G1 X-6.18 Y18.06 E7.0398
G1 X-7.08 Y17.60 E7.1702
G1 X-7.94 Y17.08 E7.2999
G1 X-8.76 Y16.49 E7.4303
G1 X-9.36 Y16.00 E7.5302
G1 X-15.00 Y16.00 E8.2581
G1 X-15.00 Y-14.00 E12.1295
G1 X-13.61 Y-14.00 E12.3089
G1 X-13.43 Y-14.40 E12.3655
G1 X-12.22 Y-15.81 E12.6053
G1 X-10.66 Y-16.84 E12.8465
G1 X-8.92 Y-17.37 E13.0813
G1 X-7.91 Y-17.45 E13.2120
G1 X7.96 Y-17.45 E15.2600
G1 X9.70 Y-17.20 E15.4869
;raft
;layer:0.40
;support-start
G1 E14.1869 F1800
G1 Z.400 F420
G1 X9.25 Y-15.65 F12000
G1 E15.4869 F1800
;structure:raft
G1 X9.25 Y-15.65 F4200
G1 X10.53 Y-15.07 E15.8496 F480
G1 X11.60 Y-14.15 E16.2138
G1 X12.38 Y-12.97 E16.5789
G1 X12.79 Y-11.62 E16.9430
G1 X12.85 Y-10.85 E17.1424
G1 X12.85 Y5.02 E21.2384
G1 X12.83 Y5.76 E21.4295
G1 X12.74 Y6.64 E21.6578
G1 X12.60 Y7.53 E21.8903
G1 X12.39 Y8.40 E22.1213
G1 X12.12 Y9.25 E22.3515
G1 X11.80 Y10.09 E22.5835
G1 X11.41 Y10.90 E22.8155
G1 X10.97 Y11.68 E23.0467
G1 X10.48 Y12.44 E23.2800
G1 X9.94 Y13.14 E23.5082
G1 X9.34 Y13.82 E23.7423
G1 X8.71 Y14.44 E23.9704
G1 X8.03 Y15.03 E24.2028
G1 X7.31 Y15.57 E24.4351
G1 X6.55 Y16.05 E24.6671
G1 X5.76 Y16.49 E24.9005
G1 X4.95 Y16.86 E25.1303
G1 X4.12 Y17.17 E25.3590
G1 X3.25 Y17.43 E25.5933
G1 X2.38 Y17.63 E25.8237
G1 X1.49 Y17.76 E26.0559
G1 X.60 Y17.84 E26.2865
G1 X-.30 Y17.85 E26.5188
G1 X-1.19 Y17.79 E26.7490
G1 X-2.08 Y17.68 E26.9805
G1 X-2.96 Y17.50 E27.2123
G1 X-3.83 Y17.27 E27.4446
G1 X-4.68 Y16.97 E27.6772
G1 X-5.50 Y16.61 E27.9084
G1 X-6.29 Y16.20 E28.1381
G1 X-7.06 Y15.74 E28.3696
G1 X-7.79 Y15.22 E28.6009
G1 X-8.48 Y14.65 E28.8319
G1 X-9.14 Y14.03 E29.0656
G1 X-9.74 Y13.38 E29.2940
G1 X-10.31 Y12.67 E29.5290
G1 X-10.81 Y11.94 E29.7573
G1 X-11.27 Y11.17 E29.9888
G1 X-11.68 Y10.36 E30.2231
G1 X-12.02 Y9.54 E30.4522
G1 X-12.31 Y8.69 E30.6840
G1 X-12.53 Y7.82 E30.9157
G1 X-12.70 Y6.94 E31.1470
G1 X-12.80 Y6.05 E31.3781
G1 X-12.85 Y5.18 E31.6031
G1 X-12.85 Y5.00 E31.6495
G1 X-12.85 Y-10.85 E35.7404
G1 X-12.65 Y-12.24 E36.1028
G1 X-12.07 Y-13.53 E36.4679
G1 X-11.15 Y-14.60 E36.8321
G1 X-9.97 Y-15.37 E37.1958
G1 X-8.62 Y-15.79 E37.5607
G1 X-7.85 Y-15.85 E37.7600
G1 X7.85 Y-15.85 E41.8122
G1 X9.25 Y-15.65 E42.1772
G1 E40.8772 F1800
G1 X-1.85 Y-4.85 F12000
G1 E42.1772 F1800
G1 X-1.85 Y-4.85 F4200
G1 X-1.85 Y4.90 E44.6936 F480
G1 X-1.80 Y5.41 E44.8259
G1 X-1.66 Y5.80 E44.9328
G1 X-1.44 Y6.16 E45.0417
G1 X-1.15 Y6.45 E45.1476
G1 X-.81 Y6.66 E45.2507
G1 X-.41 Y6.80 E45.3601
G1 X.00 Y6.85 E45.4667
G1 X.41 Y6.80 E45.5733
G1 X.81 Y6.66 E45.6827
G1 X1.15 Y6.45 E45.7858
G1 X1.44 Y6.16 E45.8917
G1 X1.66 Y5.80 E46.0006
G1 X1.80 Y5.41 E46.1075
G1 X1.85 Y4.91 E46.2372
G1 X1.85 Y-4.85 E48.7563
G1 X-1.85 Y-4.85 E49.7112
G1 E48.4112 F1800
G1 X2.65 Y-.88 F12000
G1 E49.7112 F1800
G1 X2.65 Y-.88 F4200
G1 X12.05 Y-10.28 E53.1423 F480
G1 X12.05 Y-4.17 E54.7193
G1 X2.62 Y5.26 E58.1613
G1 E56.8613 F1800
G1 X3.62 Y16.49 F12000
G1 E58.1613 F1800
G1 X3.62 Y16.49 F4200
G1 X11.48 Y8.63 E61.0302 F480
G1 X11.62 Y8.18 E61.1519
G1 X11.81 Y7.37 E61.3666
G1 X11.95 Y6.55 E61.5813
G1 X12.03 Y5.71 E61.7991
G1 X12.05 Y4.99 E61.9850
G1 X12.05 Y1.94 E62.7722
G1 X-2.74 Y16.73 E68.1706
G1 X-3.58 Y16.50 E68.3954
G1 X-4.39 Y16.22 E68.6166
G1 X-5.15 Y15.89 E68.8305
G1 X-5.90 Y15.51 E69.0475
G1 X-6.62 Y15.07 E69.2653
G1 X-6.95 Y14.83 E69.3706
G1 X.25 Y7.62 E72.0004
G1 X.00 Y7.65 E72.0654
G1 X-.59 Y7.59 E72.2185
G1 X-1.16 Y7.39 E72.3744
G1 X-1.65 Y7.07 E72.5254
G1 X-2.07 Y6.66 E72.6769
G1 X-2.39 Y6.15 E72.8323
G1 X-2.59 Y5.58 E72.9882
G1 X-2.65 Y4.94 E73.1541
G1 X-2.65 Y4.41 E73.2909
G1 X-9.98 Y11.74 E75.9664
G1 X-10.14 Y11.51 E76.0387
G1 X-10.57 Y10.78 E76.2574
G1 X-10.95 Y10.02 E76.4767
G1 X-11.27 Y9.26 E76.6896
G1 X-11.54 Y8.46 E76.9075
G1 X-11.75 Y7.64 E77.1259
G1 X-11.79 Y7.44 E77.1786
G1 X-2.65 Y-1.70 E80.5148
G1 X-2.65 Y-5.65 E81.5342
G1 X1.30 Y-5.65 E82.5537
G1 X10.06 Y-14.40 E85.7494
G1 X9.02 Y-14.87 E86.0439
G1 X7.79 Y-15.05 E86.3648
G1 X4.58 Y-15.05 E87.1933
G1 X-12.05 Y1.59 E93.2652
G1 X-12.05 Y-4.53 E94.8447
G1 X-1.53 Y-15.05 E98.6846
G1 X-7.64 Y-15.05 E100.2616
G1 X-12.05 Y-10.64 E101.8712
;support-end
;layer:0.40
;support-start
M104 S200 T0
G1 E100.5713 F1800
G1 Z.800 F420
G1 X9.25 Y-15.65 F12000
G1 E101.8712 F1800
G1 X9.25 Y-15.65 F12000
G1 X10.53 Y-15.07 E101.9619 F1800
G1 X11.60 Y-14.15 E102.0530
G1 X12.38 Y-12.97 E102.1443
G1 X12.79 Y-11.62 E102.2353
G1 X12.85 Y-10.85 E102.2851
G1 X12.85 Y5.02 E103.3091
G1 X12.83 Y5.76 E103.3569
G1 X12.74 Y6.64 E103.4140
G1 X12.60 Y7.53 E103.4721
G1 X12.39 Y8.40 E103.5299
G1 X12.12 Y9.25 E103.5874
G1 X11.80 Y10.09 E103.6454
G1 X11.41 Y10.90 E103.7034
G1 X10.97 Y11.68 E103.7612
G1 X10.48 Y12.44 E103.8195
G1 X9.94 Y13.14 E103.8766
G1 X9.34 Y13.82 E103.9351
G1 X8.71 Y14.44 E103.9921
G1 X8.03 Y15.03 E104.0502
G1 X7.31 Y15.57 E104.1083
G1 X6.55 Y16.05 E104.1663
G1 X5.76 Y16.49 E104.2246
G1 X4.95 Y16.86 E104.2821
G1 X4.12 Y17.17 E104.3393
G1 X3.25 Y17.43 E104.3979
G1 X2.38 Y17.63 E104.4555
G1 X1.49 Y17.76 E104.5135
G1 X.60 Y17.84 E104.5712
G1 X-.30 Y17.85 E104.6292
G1 X-1.19 Y17.79 E104.6868
G1 X-2.08 Y17.68 E104.7447
G1 X-2.96 Y17.50 E104.8026
G1 X-3.83 Y17.27 E104.8607
G1 X-4.68 Y16.97 E104.9189
G1 X-5.50 Y16.61 E104.9766
G1 X-6.29 Y16.20 E105.0341
G1 X-7.06 Y15.74 E105.0919
G1 X-7.79 Y15.22 E105.1498
G1 X-8.48 Y14.65 E105.2075
G1 X-9.14 Y14.03 E105.2659
G1 X-9.74 Y13.38 E105.3230
G1 X-10.31 Y12.67 E105.3818
G1 X-10.81 Y11.94 E105.4389
G1 X-11.27 Y11.17 E105.4967
G1 X-11.68 Y10.36 E105.5553
G1 X-12.02 Y9.54 E105.6126
G1 X-12.31 Y8.69 E105.6706
G1 X-12.53 Y7.82 E105.7285
G1 X-12.70 Y6.94 E105.7863
G1 X-12.80 Y6.05 E105.8441
G1 X-12.85 Y5.18 E105.9003
G1 X-12.85 Y5.00 E105.9119
G1 X-12.85 Y-10.85 E106.9346
G1 X-12.65 Y-12.24 E107.0253
G1 X-12.07 Y-13.53 E107.1165
G1 X-11.15 Y-14.60 E107.2076
G1 X-9.97 Y-15.37 E107.2985
G1 X-8.62 Y-15.79 E107.3897
G1 X-7.85 Y-15.85 E107.4395
G1 X7.85 Y-15.85 E108.4526
G1 X9.25 Y-15.65 E108.5438
G1 E107.2438
G1 X-1.85 Y-4.85 F12000
G1 E108.5438 F1800
G1 X-1.85 Y-4.85 F12000
G1 X-1.85 Y4.90 E109.1729 F1800
G1 X-1.80 Y5.41 E109.2060
G1 X-1.66 Y5.80 E109.2327
G1 X-1.44 Y6.16 E109.2600
G1 X-1.15 Y6.45 E109.2864
G1 X-.81 Y6.66 E109.3122
G1 X-.41 Y6.80 E109.3396
G1 X.00 Y6.85 E109.3662
G1 X.41 Y6.80 E109.3929
G1 X.81 Y6.66 E109.4202
G1 X1.15 Y6.45 E109.4460
G1 X1.44 Y6.16 E109.4725
G1 X1.66 Y5.80 E109.4997
G1 X1.80 Y5.41 E109.5264
G1 X1.85 Y4.91 E109.5588
G1 X1.85 Y-4.85 E110.1886
G1 X-1.85 Y-4.85 E110.4273
G1 E109.1273
G1 X12.34 Y-12.41 F12000
G1 E110.4273 F1800
G1 X12.34 Y-12.41 F12000
G1 X9.38 Y-15.37 E110.6974 F1800
G1 X9.19 Y-15.45 E110.7107
G1 X7.84 Y-15.65 E110.7988
G1 X7.15 Y-15.65 E110.8433
G1 X12.65 Y-10.14 E111.3457
G1 X12.65 Y-8.19 E111.4715
G1 X5.19 Y-15.65 E112.1522
G1 X3.24 Y-15.65 E112.2781
G1 X12.65 Y-6.23 E113.1372
G1 X12.65 Y-4.28 E113.2630
G1 X1.28 Y-15.65 E114.3005
G1 X-.68 Y-15.65 E114.4270
G1 X12.65 Y-2.32 E115.6434
G1 X12.65 Y-.36 E115.7699
G1 X-2.63 Y-15.65 E117.1646
G1 X-4.59 Y-15.65 E117.2911
G1 X12.65 Y1.59 E118.8643
G1 X12.65 Y3.55 E118.9908
G1 X-6.54 Y-15.65 E120.7423
G1 X-7.85 Y-15.65 E120.8269
G1 X-8.45 Y-15.60 E120.8657
G1 X12.63 Y5.49 E122.7897
G1 X12.63 Y5.75 E122.8065
G1 X12.54 Y6.62 E122.8630
G1 X12.44 Y7.25 E122.9041
G1 X2.05 Y-3.14 E123.8522
G1 X2.05 Y-5.05 E123.9755
G1 X.14 Y-5.05 E124.0987
G1 X-9.95 Y-15.14 E125.0194
G1 X-11.02 Y-14.45 E125.1016
G1 X-11.11 Y-14.34 E125.1107
G1 X-1.81 Y-5.05 E125.9589
G1 X-2.05 Y-5.05 E125.9744
G1 X-2.05 Y-3.33 E126.0854
G1 X-11.97 Y-13.25 E126.9906
G1 X-12.46 Y-12.19 E127.0660
G1 X-12.51 Y-11.83 E127.0894
G1 X-2.05 Y-1.37 E128.0439
G1 X-2.05 Y.58 E128.1697
G1 X-12.65 Y-10.02 E129.1370
G1 X-12.65 Y-8.06 E129.2635
G1 X-2.05 Y2.54 E130.2307
G1 X-2.05 Y4.50 E130.3572
G1 X-12.65 Y-6.10 E131.3245
G1 X-12.65 Y-4.15 E131.4503
G1 X7.02 Y15.52 E133.2452
G1 X6.46 Y15.88 E133.2882
G1 X5.78 Y16.24 E133.3378
G1 X-12.65 Y-2.19 E135.0196
G1 X-12.65 Y-.24 E135.1454
G1 X4.43 Y16.84 E136.7040
G1 X4.06 Y16.98 E136.7295
G1 X3.20 Y17.24 E136.7875
G1 X2.93 Y17.30 E136.8053
G1 X-12.65 Y1.72 E138.2270
G1 X-12.65 Y3.68 E138.3535
G1 X1.26 Y17.58 E139.6224
G1 X.59 Y17.64 E139.6658
G1 X-.29 Y17.65 E139.7226
G1 X-.66 Y17.62 E139.7465
G1 X-12.62 Y5.66 E140.8379
G1 X-12.61 Y6.02 E140.8611
G1 X-12.50 Y6.90 E140.9183
G1 X-12.34 Y7.77 E140.9754
G1 X-12.29 Y7.94 E140.9869
G1 X-2.93 Y17.30 E141.8410
G1 X-3.77 Y17.08 E141.8970
G1 X-4.60 Y16.78 E141.9539
G1 X-5.41 Y16.43 E142.0109
G1 X-6.13 Y16.06 E142.0631
G1 X-11.06 Y11.13 E142.5130
G1 E141.2130
G1 X.45 Y7.00 F12000
G1 E142.5130 F1800
G1 X.45 Y7.00 F12000
G1 X8.13 Y14.68 E143.2138 F1800
G1 X8.58 Y14.30 E143.2518
G1 X9.14 Y13.73 E143.3034
G1 X1.63 Y6.22 E143.9887
G1 X1.84 Y5.89 E144.0139
G1 X2.00 Y5.45 E144.0441
G1 X2.05 Y4.92 E144.0784
G1 X2.05 Y4.68 E144.0939
G1 X10.04 Y12.68 E144.8235
G1 X10.32 Y12.32 E144.8529
G1 X10.84 Y11.52 E144.9145
G1 X2.05 Y2.73 E145.7166
G1 X2.05 Y.77 E145.8431
G1 X11.51 Y10.23 E146.7063
G1 X11.62 Y10.00 E146.7227
G1 X11.93 Y9.19 E146.7787
G1 X12.05 Y8.81 E146.8044
G1 X2.05 Y-1.18 E147.7165
;support-end
;layer:0.25
;support-start
M106
G1 E146.4165
G1 Z1.050 F420
G1 X9.25 Y-15.65 F12000
G1 E147.7165 F1800
G1 X9.25 Y-15.65 F12000
G1 X10.53 Y-15.07 E147.7732 F3600
G1 X11.60 Y-14.15 E147.8301
G1 X12.38 Y-12.97 E147.8871
G1 X12.79 Y-11.62 E147.9440
G1 X12.85 Y-10.85 E147.9751
G1 X12.85 Y5.02 E148.6151
G1 X12.83 Y5.76 E148.6450
G1 X12.74 Y6.64 E148.6807
G1 X12.60 Y7.53 E148.7170
G1 X12.39 Y8.40 E148.7531
G1 X12.12 Y9.25 E148.7891
G1 X11.80 Y10.09 E148.8253
G1 X11.41 Y10.90 E148.8616
G1 X10.97 Y11.68 E148.8977
G1 X10.48 Y12.44 E148.9341
G1 X9.94 Y13.14 E148.9698
G1 X9.34 Y13.82 E149.0064
G1 X8.71 Y14.44 E149.0420
G1 X8.03 Y15.03 E149.0783
G1 X7.31 Y15.57 E149.1146
G1 X6.55 Y16.05 E149.1509
G1 X5.76 Y16.49 E149.1874
G1 X4.95 Y16.86 E149.2233
G1 X4.12 Y17.17 E149.2590
G1 X3.25 Y17.43 E149.2956
G1 X2.38 Y17.63 E149.3316
G1 X1.49 Y17.76 E149.3679
G1 X.60 Y17.84 E149.4039
G1 X-.30 Y17.85 E149.4402
G1 X-1.19 Y17.79 E149.4762
G1 X-2.08 Y17.68 E149.5124
G1 X-2.96 Y17.50 E149.5486
G1 X-3.83 Y17.27 E149.5849
G1 X-4.68 Y16.97 E149.6212
G1 X-5.50 Y16.61 E149.6573
G1 X-6.29 Y16.20 E149.6932
G1 X-7.06 Y15.74 E149.7294
G1 X-7.79 Y15.22 E149.7655
G1 X-8.48 Y14.65 E149.8016
G1 X-9.14 Y14.03 E149.8381
G1 X-9.74 Y13.38 E149.8738
G1 X-10.31 Y12.67 E149.9105
G1 X-10.81 Y11.94 E149.9462
G1 X-11.27 Y11.17 E149.9824
G1 X-11.68 Y10.36 E150.0190
G1 X-12.02 Y9.54 E150.0548
G1 X-12.31 Y8.69 E150.0910
G1 X-12.53 Y7.82 E150.1272
G1 X-12.70 Y6.94 E150.1633
G1 X-12.80 Y6.05 E150.1995
G1 X-12.85 Y5.18 E150.2346
G1 X-12.85 Y5.00 E150.2419
G1 X-12.85 Y-10.85 E150.8811
G1 X-12.65 Y-12.24 E150.9377
G1 X-12.07 Y-13.53 E150.9948
G1 X-11.15 Y-14.60 E151.0517
G1 X-9.97 Y-15.37 E151.1085
G1 X-8.62 Y-15.79 E151.1655
G1 X-7.85 Y-15.85 E151.1966
G1 X7.85 Y-15.85 E151.8298
G1 X9.25 Y-15.65 E151.8868
G1 E150.5868 F1800
G1 X-1.85 Y-4.85 F12000
G1 E151.8868 F1800
G1 X-1.85 Y-4.85 F12000
G1 X-1.85 Y4.90 E152.2800 F3600
G1 X-1.80 Y5.41 E152.3007
G1 X-1.66 Y5.80 E152.3174
G1 X-1.44 Y6.16 E152.3344
G1 X-1.15 Y6.45 E152.3510
G1 X-.81 Y6.66 E152.3671
G1 X-.41 Y6.80 E152.3842
G1 X.00 Y6.85 E152.4008
G1 X.41 Y6.80 E152.4175
G1 X.81 Y6.66 E152.4346
G1 X1.15 Y6.45 E152.4507
G1 X1.44 Y6.16 E152.4672
G1 X1.66 Y5.80 E152.4842
G1 X1.80 Y5.41 E152.5009
G1 X1.85 Y4.91 E152.5212
G1 X1.85 Y-4.85 E152.9148
G1 X-1.85 Y-4.85 E153.0640
G1 E151.7640 F1800
G1 X-1.26 Y-5.05 F12000
G1 E153.0640 F1800
G1 X-1.26 Y-5.05 F12000
G1 X9.15 Y-15.46 E153.6577 F3600
G1 X9.57 Y-15.28 E153.6762
G1 X-.67 Y-5.05 E154.2599
G1 X-.07 Y-5.05 E154.2841
G1 X9.98 Y-15.10 E154.8572
G1 X10.39 Y-14.91 E154.8755
G1 X.52 Y-5.05 E155.4381
G1 X1.12 Y-5.05 E155.4623
G1 X10.72 Y-14.64 E156.0095
G1 X11.04 Y-14.37 E156.0264
G1 X1.71 Y-5.05 E156.5582
G1 X2.05 Y-5.05 E156.5719
G1 X2.05 Y-4.79 E156.5824
G1 X11.36 Y-14.09 E157.1131
G1 X11.45 Y-14.02 E157.1177
G1 X11.62 Y-13.76 E157.1302
G1 X2.05 Y-4.19 E157.6760
G1 X2.05 Y-3.60 E157.6998
G1 X11.85 Y-13.40 E158.2587
G1 X12.09 Y-13.04 E158.2762
G1 X2.05 Y-3.00 E158.8488
G1 X2.05 Y-2.40 E158.8730
G1 X12.27 Y-12.63 E159.4562
G1 X12.41 Y-12.17 E159.4756
G1 X2.05 Y-1.81 E160.0664
G1 X2.05 Y-1.21 E160.0906
G1 X12.55 Y-11.72 E160.6897
G1 X12.59 Y-11.58 E160.6956
G1 X12.62 Y-11.19 E160.7114
G1 X2.05 Y-.62 E161.3142
G1 X2.05 Y-.02 E161.3384
G1 X12.65 Y-10.62 E161.9430
G1 X12.65 Y-10.03 E161.9668
G1 X2.05 Y.57 E162.5713
G1 X2.05 Y1.17 E162.5955
G1 X12.65 Y-9.43 E163.2001
G1 X12.65 Y-8.84 E163.2239
G1 X2.05 Y1.76 E163.8284
G1 X2.05 Y2.36 E163.8526
G1 X12.65 Y-8.24 E164.4572
G1 X12.65 Y-7.65 E164.4810
G1 X2.05 Y2.95 E165.0855
G1 X2.05 Y3.55 E165.1097
G1 X12.65 Y-7.05 E165.7143
G1 X12.65 Y-6.45 E165.7385
G1 X2.05 Y4.14 E166.3427
G1 X2.05 Y4.74 E166.3669
G1 X12.65 Y-5.86 E166.9715
G1 X12.65 Y-5.26 E166.9957
G1 X2.01 Y5.38 E167.6025
G1 E166.3025 F1800
G1 X8.52 Y14.34 F12000
G1 E167.6025 F1800
G1 X8.52 Y14.34 F12000
G1 X9.30 Y13.56 E167.6470 F3600
G1 X9.78 Y13.02 E167.6761
G1 X10.32 Y12.32 E167.7118
G1 X10.81 Y11.57 E167.7479
G1 X10.95 Y11.32 E167.7595
G1 X6.32 Y15.95 E168.0235
G1 X5.67 Y16.31 E168.0535
G1 X5.11 Y16.56 E168.0782
G1 X11.56 Y10.11 E168.4461
G1 X11.93 Y9.19 E168.4861
G1 X11.95 Y9.13 E168.4886
G1 X4.12 Y16.96 E168.9352
G1 X3.27 Y17.22 E168.9710
G1 X12.21 Y8.27 E169.4812
G1 X12.40 Y7.49 E169.5136
G1 X2.49 Y17.40 E170.0788
G1 X1.78 Y17.52 E170.1078
G1 X12.52 Y6.78 E170.7203
G1 X12.59 Y6.11 E170.7475
G1 X1.10 Y17.59 E171.4025
G1 X.47 Y17.64 E171.4280
G1 X12.63 Y5.47 E172.1218
G1 X12.65 Y4.86 E172.1464
G1 X-.14 Y17.64 E172.8756
G1 X-.71 Y17.62 E172.8986
G1 X12.65 Y4.26 E173.6605
G1 X12.65 Y3.67 E173.6843
G1 X-1.27 Y17.58 E174.4779
G1 X-1.79 Y17.51 E174.4991
G1 X12.65 Y3.07 E175.3226
G1 X12.65 Y2.48 E175.3464
G1 X-2.30 Y17.43 E176.1990
G1 X-2.80 Y17.33 E176.2196
G1 X12.65 Y1.88 E177.1008
G1 X12.65 Y1.29 E177.1245
G1 X-3.27 Y17.21 E178.0325
G1 X-3.74 Y17.08 E178.0522
G1 X12.65 Y.69 E178.9869
G1 X12.65 Y.09 E179.0111
G1 X-4.18 Y16.93 E179.9713
G1 X-4.62 Y16.77 E179.9902
G1 X12.65 Y-.50 E180.9751
G1 X12.65 Y-1.10 E180.9993
G1 X-5.04 Y16.59 E182.0082
G1 X-5.45 Y16.41 E182.0263
G1 X12.65 Y-1.69 E183.0586
G1 X12.65 Y-2.29 E183.0828
G1 X-5.84 Y16.21 E184.1376
G1 X-6.24 Y16.00 E184.1558
G1 X12.65 Y-2.88 E185.2329
G1 X12.65 Y-3.48 E185.2571
G1 X-6.61 Y15.78 E186.3555
G1 X-6.97 Y15.55 E186.3727
G1 X12.65 Y-4.07 E187.4917
G1 X12.65 Y-4.67 E187.5159
G1 X-7.32 Y15.30 E188.6549
G1 X-7.67 Y15.06 E188.6720
G1 X.38 Y7.01 E189.1311
G1 X.00 Y7.05 E189.1465
G1 X-.23 Y7.02 E189.1558
G1 X-8.00 Y14.79 E189.5990
G1 X-8.33 Y14.52 E189.6162
G1 X-.71 Y6.91 E190.0505
G1 X-.90 Y6.84 E190.0586
G1 X-1.11 Y6.71 E190.0686
G1 X-8.63 Y14.23 E190.4975
G1 X-8.94 Y13.94 E190.5146
G1 X-1.44 Y6.44 E190.9423
G1 X-1.60 Y6.28 E190.9514
G1 X-1.70 Y6.11 E190.9594
G1 X-9.23 Y13.64 E191.3888
G1 X-9.51 Y13.33 E191.4057
G1 X-1.90 Y5.72 E191.8397
G1 X-2.00 Y5.45 E191.8513
G1 X-2.02 Y5.24 E191.8598
G1 X-9.78 Y13.00 E192.3024
